svgs/light/dice.svg

<svg xmlns="http://www.w3.org/2000/svg" viewBox="0 0 640 512"><path d="M480 328c-13.25 0-24 10.74-24 24 0 13.25 10.75 24 24 24s24-10.75 24-24c0-13.26-10.75-24-24-24zM224 200c-13.25 0-24 10.74-24 24 0 13.25 10.75 24 24 24s24-10.75 24-24c0-13.26-10.75-24-24-24zm96 0c-13.25 0-24 10.74-24 24 0 13.25 10.75 24 24 24s24-10.75 24-24c0-13.26-10.75-24-24-24zm-192 0c-13.25 0-24 10.74-24 24 0 13.25 10.75 24 24 24s24-10.75 24-24c0-13.26-10.75-24-24-24zm96 96c-13.25 0-24 10.74-24 24 0 13.25 10.75 24 24 24s24-10.75 24-24c0-13.26-10.75-24-24-24zm0-192c-13.25 0-24 10.74-24 24 0 13.25 10.75 24 24 24s24-10.75 24-24c0-13.26-10.75-24-24-24zm352 88H439.38c-2.89-5.17-6.26-10.15-10.65-14.54L270.54 19.28C257.69 6.42 240.84 0 224 0s-33.69 6.42-46.54 19.28L19.28 177.46c-25.7 25.7-25.7 67.38 0 93.08l158.18 158.18C190.31 441.57 207.16 448 224 448s33.69-6.43 46.54-19.28L320 379.26V448c0 35.35 28.65 64 64 64h192c35.35 0 64-28.65 64-64V256c0-35.35-28.65-64-64-64zM247.27 405.45c-6.21 6.21-14.48 9.64-23.27 9.64s-17.05-3.42-23.27-9.64L42.55 247.27c-6.21-6.22-9.64-14.48-9.64-23.27s3.42-17.05 9.64-23.27L200.73 42.55c6.21-6.21 14.48-9.64 23.27-9.64s17.05 3.42 23.27 9.64l158.18 158.18c6.22 6.21 9.64 14.48 9.64 23.27s-3.42 17.05-9.64 23.27L247.27 405.45zM608 448c0 17.64-14.36 32-32 32H384c-17.64 0-32-14.36-32-32V347.26l76.72-76.72C441.57 257.69 448 240.84 448 224h128c17.64 0 32 14.36 32 32v192z"/></svg>

<svg xmlns="http://www.w3.org/2000/svg" viewBox="0 0 640 512"><!--! Font Awesome Pro 6.0.0-alpha3 by @fontawesome - https://fontawesome.com License - https://fontawesome.com/license (Commercial License) --><path d="M224 296c-13.25 0-24 10.75-24 24S210.8 344 224 344S248 333.3 248 320S237.3 296 224 296zM128 200C114.8 200 104 210.8 104 224S114.8 248 128 248S152 237.3 152 224S141.3 200 128 200zM224 200C210.8 200 200 210.8 200 224S210.8 248 224 248S248 237.3 248 224S237.3 200 224 200zM480 376c13.25 0 24-10.75 24-24s-10.75-24-24-24s-24 10.75-24 24S466.8 376 480 376zM224 104C210.8 104 200 114.8 200 128S210.8 152 224 152S248 141.3 248 128S237.3 104 224 104zM576 192h-102.7c3.59 10.21 5.848 20.92 5.848 32H576c17.62 0 32 14.38 32 32v192c0 17.62-14.38 32-32 32h-192c-17.62 0-32-14.38-32-32v-56.74l-32 31.9V448c0 35.38 28.62 64 64 64h192c35.38 0 64-28.62 64-64V256C640 220.6 611.4 192 576 192zM320 200C306.8 200 296 210.8 296 224S306.8 248 320 248S344 237.3 344 224S333.3 200 320 200zM447.1 223.1c0-17.15-6.691-33.43-18.84-45.83L270.1 19.07C257.4 6.691 241.1-.0035 223.1-.0035s-33.38 6.695-45.78 18.85L19.07 177.9C6.693 190.6-.0027 206.8-.0027 223.1c0 17.15 6.696 33.48 18.85 45.87L177.9 428.9C190.6 441.3 206.8 447.1 224 447.1s33.43-6.693 45.83-18.85L428.9 270.1C441.3 257.4 447.1 241.2 447.1 223.1zM406.2 247.3l-158.9 158.9C241.1 412.4 232.8 415.9 224 415.9s-17.07-3.514-23.34-9.662L41.79 247.3C35.64 241.1 32.13 232.8 32.13 224c0-8.785 3.516-17.07 9.664-23.34l158.9-158.9C206.9 35.64 215.2 32.13 224 32.13s17.07 3.514 23.34 9.662l158.9 158.9C412.4 206.9 415.9 215.2 415.9 224C415.9 232.8 412.4 241.1 406.2 247.3z"/></svg>
